X:68
T:Up to Your Neck in Newts
R:double jig
C: 1990, 2010 L.E. McCullough 
M:6/8
L:1/8
K:D
|:~F3 AFE|FAA B2A|~B3Bcd|fed e2d|
~F3 AFE|FAA B2A|1 ~B3 Bcd|AFE ~D3:|2 Bcd fed|AFE~D3|] 
|:~B3 BAF|~B3 d2e|~f3 ~e3|dfe dBA|
~B3 BAF|~B3 d2e|1 ~f3 edB|AFA fed:|2 ~f3 ~g3|afd AFE|]
<end>
<start>
